X: 114
T: Greig's Pipes
T: Craig's Pipes
M: 4/4
L: 1/8
R: reel
K:Gmaj
"G"~B2BA BAGA | B2GB "C"AGEG |1"G" ~B3A BAGB |"C"AcBG AGEG :|2"G"Bd~d2 eBdB |"C" AcBG AGEG ||
|: "G"DG~G2 DGBG | DGBG "C"AGEG |"G" DGGF GABc |1 dBAc BGGE :|2dBAc BGGB ||
|: "G"d2 Bd "C"efge |"G" d2BG "C"AGEG |"G"d2 Bd "C"ef~g2 |1 "G"agbg "C"ageg :|2 "D"agab aged||


